img/youtube.svg

<svg width="29" height="21" viewBox="0 0 29 21" fill="none" xmlns="http://www.w3.org/2000/svg">
<path d="M14.4109 20.3286C11.2129 20.2278 8.1718 20.1494 5.13068 20.0318C4.47541 20.0038 3.80894 19.9031 3.17047 19.7519C1.97195 19.472 1.14306 18.7498 0.717415 17.5685C0.375779 16.6167 0.252566 15.637 0.162957 14.6405C-0.0330639 12.3003 -0.0330639 9.96009 0.0621461 7.61991C0.118152 6.29866 0.151756 4.96621 0.504593 3.68415C0.717415 2.91715 0.975042 2.16695 1.59671 1.6127C2.25198 1.02485 3.01926 0.672147 3.89295 0.632958C6.29 0.515389 8.68145 0.369827 11.0785 0.347433C14.3044 0.313842 17.536 0.35863 20.7619 0.420214C22.1565 0.448207 23.5622 0.520988 24.9456 0.70014C26.2113 0.868096 27.1578 1.57351 27.6618 2.80518C28.0483 3.75133 28.1939 4.74227 28.2779 5.75001C28.4963 8.27494 28.5019 10.7999 28.3787 13.3248C28.3171 14.6069 28.2555 15.8945 27.8915 17.143C27.477 18.5762 26.5977 19.5224 25.1304 19.8471C24.5591 19.9702 23.9655 20.015 23.383 20.0374C20.3363 20.1438 17.2952 20.239 14.4109 20.3286ZM11.3137 13.963C13.8676 12.6418 16.3935 11.3317 18.9697 9.99368C16.3991 8.65004 13.8732 7.33439 11.3137 5.99634C11.3137 8.66683 11.3137 11.2925 11.3137 13.963Z" fill="white"/>
</svg>

<svg width="29" height="21" fill="none" xmlns="http://www.w3.org/2000/svg"><path d="M14.41 20.329c-3.197-.101-6.238-.18-9.28-.297a10.534 10.534 0 01-1.96-.28c-1.198-.28-2.027-1.002-2.453-2.183-.341-.952-.464-1.932-.554-2.928-.196-2.34-.196-4.68-.1-7.021.055-1.321.089-2.654.442-3.936.212-.767.47-1.517 1.092-2.071.655-.588 1.422-.94 2.296-.98C6.29.515 8.68.37 11.079.347c3.225-.033 6.457.012 9.683.073 1.395.028 2.8.101 4.184.28 1.265.168 2.212.874 2.716 2.105.386.946.532 1.937.616 2.945.218 2.525.224 5.05.1 7.575-.06 1.282-.122 2.57-.486 3.818-.415 1.433-1.294 2.38-2.762 2.704-.57.123-1.165.168-1.747.19-3.047.107-6.088.202-8.972.292zm-3.096-6.366c2.554-1.321 5.08-2.631 7.656-3.97-2.57-1.343-5.097-2.659-7.656-3.997v7.967z" fill="#fff"/></svg>
